assets/logos/vimperator-labs-favicon.svg

<svg height="16" width="16" xmlns="http://www.w3.org/2000/svg"><text fill="#f79910" font-family="BenguiatGot Bk BT" font-size="31.13627243" transform="scale(.7784068 1.2846753)" x="-2.7061799" xml:space="preserve" y="11.852823"><tspan x="-2.7061799" y="11.852823">~</tspan></text><text x="209.47713" y="31.176472"><tspan x="209.47713" y="31.176472"/></text><path d="m8.0000004 8.9772046c-.65585.0000049-1.150214.0882899-1.5.2257901-.338858.1339859-.500003.3267507-.5.5806052v3.9352041c-.000003.253858.161146.443097.5.580603.349782.133981.84415.193535 1.5.193535.666771 0 1.161142-.06308 1.5-.193535.338848-.133981.499994-.319693.4999996-.580603v-3.9352041c-.0000056-.2609053-.1611516-.4824008-.4999996-.6128611-.338861-.1339748-.833226-.1935293-1.5-.1935342z"/><path d="m29 11.5a1.5 1.5 0 1 1-3 0 1.5 1.5 0 1 1  3 0z" transform="matrix(1.33227 -.05278407 .05278407 1.33227 -29.244442 .1187646)"/><path d="m29 11.5a1.5 1.5 0 1 1-3 0 1.5 1.5 0 1 1  3 0z" transform="matrix(1.33227 -.05278407 .05278407 1.33227 -29.244442 -4.6718058)"/></svg>

<?xml version="1.0" encoding="UTF-8" standalone="no"?>
<!-- Created with Inkscape (http://www.inkscape.org/) -->
<svg
   xmlns:dc="http://purl.org/dc/elements/1.1/"
   xmlns:cc="http://creativecommons.org/ns#"
   xmlns:rdf="http://www.w3.org/1999/02/22-rdf-syntax-ns#"
   xmlns:svg="http://www.w3.org/2000/svg"
   xmlns="http://www.w3.org/2000/svg"
   xmlns:xlink="http://www.w3.org/1999/xlink"
   xmlns:sodipodi="http://sodipodi.sourceforge.net/DTD/sodipodi-0.dtd"
   xmlns:inkscape="http://www.inkscape.org/namespaces/inkscape"
   width="16"
   height="16"
   id="svg2"
   sodipodi:version="0.32"
   inkscape:version="0.46"
   sodipodi:docbase="/home/maxauthority/code/vimperator"
   sodipodi:docname="favicon2.svg"
   version="1.0"
   inkscape:output_extension="org.inkscape.output.svg.inkscape"
   inkscape:export-filename="/home/maxauthority/code/vimperator/favicon2.png"
   inkscape:export-xdpi="90"
   inkscape:export-ydpi="90">
  <defs
     id="defs4">
    <inkscape:perspective
       sodipodi:type="inkscape:persp3d"
       inkscape:vp_x="0 : 30 : 1"
       inkscape:vp_y="0 : 1000 : 0"
       inkscape:vp_z="255 : 30 : 1"
       inkscape:persp3d-origin="127.5 : 20 : 1"
       id="perspective2403" />
    <linearGradient
       id="linearGradient3823">
      <stop
         style="stop-color:#ff9100;stop-opacity:1;"
         offset="0"
         id="stop3825" />
      <stop
         style="stop-color:#000000;stop-opacity:0;"
         offset="1"
         id="stop3827" />
    </linearGradient>
    <linearGradient
       id="linearGradient3599">
      <stop
         style="stop-color:#ff7326;stop-opacity:1;"
         offset="0"
         id="stop3601" />
      <stop
         id="stop3609"
         offset="0.57894737"
         style="stop-color:#f0632c;stop-opacity:0.90588236;" />
      <stop
         style="stop-color:#e29f32;stop-opacity:0.81632656;"
         offset="1"
         id="stop3603" />
    </linearGradient>
    <linearGradient
       inkscape:collect="always"
       xlink:href="#linearGradient3599"
       id="linearGradient3607"
       x1="475.69965"
       y1="109.26733"
       x2="481.59406"
       y2="264.12207"
       gradientUnits="userSpaceOnUse" />
    <linearGradient
       inkscape:collect="always"
       xlink:href="#linearGradient3599"
       id="linearGradient3615"
       gradientUnits="userSpaceOnUse"
       x1="475.69965"
       y1="109.26733"
       x2="481.59406"
       y2="264.12207"
       gradientTransform="translate(1.0255373e-6,2.0387587e-7)" />
    <linearGradient
       inkscape:collect="always"
       xlink:href="#linearGradient3823"
       id="linearGradient3829"
       x1="69.145302"
       y1="544.67926"
       x2="60.607113"
       y2="552.72052"
       gradientUnits="userSpaceOnUse"
       gradientTransform="translate(3.439313e-7,2.5176457e-6)" />
  </defs>
  <sodipodi:namedview
     id="base"
     pagecolor="#ffffff"
     bordercolor="#666666"
     borderopacity="1.0"
     gridtolerance="10000"
     guidetolerance="10"
     objecttolerance="10"
     inkscape:pageopacity="0.0"
     inkscape:pageshadow="2"
     inkscape:zoom="11"
     inkscape:cx="22.101493"
     inkscape:cy="3.0397385"
     inkscape:document-units="px"
     inkscape:current-layer="layer1"
     width="255px"
     height="60px"
     showgrid="true"
     showguides="true"
     showborder="true"
     inkscape:showpageshadow="true">
    <inkscape:grid
       type="xygrid"
       id="grid2421"
       visible="true"
       enabled="true"
       empspacing="2"
       dotted="true" />
  </sodipodi:namedview>
  <metadata
     id="metadata7">
    <rdf:RDF>
      <cc:Work
         rdf:about="">
        <dc:format>image/svg+xml</dc:format>
        <dc:type
           rdf:resource="http://purl.org/dc/dcmitype/StillImage" />
      </cc:Work>
    </rdf:RDF>
  </metadata>
  <g
     inkscape:label="Layer 1"
     inkscape:groupmode="layer"
     id="layer1">
    <text
       xml:space="preserve"
       style="font-size:31.13627243px;font-style:normal;font-weight:normal;fill:#f79910;fill-opacity:1;stroke:none;stroke-width:1px;stroke-linecap:butt;stroke-linejoin:miter;stroke-opacity:1;font-family:BenguiatGot Bk BT"
       x="-2.7061799"
       y="11.852823"
       id="text3920"
       transform="scale(0.7784068,1.2846753)"><tspan
         sodipodi:role="line"
         id="tspan3922"
         x="-2.7061799"
         y="11.852823">~</tspan></text>
    <text
       xml:space="preserve"
       style="font-size:24px;font-style:normal;font-weight:normal;fill:#000000;fill-opacity:1;stroke:none;stroke-width:1px;stroke-linecap:butt;stroke-linejoin:miter;stroke-opacity:1;font-family:DejaVu Sans Mono"
       x="209.47713"
       y="31.176472"
       id="text2414"><tspan
         sodipodi:role="line"
         id="tspan2416"
         x="209.47713"
         y="31.176472" /></text>
    <path
       style="font-size:10.49354267px;font-style:normal;font-variant:normal;font-weight:bold;font-stretch:normal;fill:#000000;fill-opacity:1;stroke:none;stroke-width:1px;stroke-linecap:butt;stroke-linejoin:miter;stroke-opacity:1;font-family:BenguiatGot Bk BT;-inkscape-font-specification:BenguiatGot Bk BT Bold"
       d="M 8.0000004,8.9772046 C 7.3441504,8.9772095 6.8497864,9.0654945 6.5000004,9.2029947 C 6.1611424,9.3369806 5.9999974,9.5297454 6.0000004,9.7835999 L 6.0000004,13.718804 C 5.9999974,13.972662 6.1611464,14.161901 6.5000004,14.299407 C 6.8497824,14.433388 7.3441504,14.492942 8.0000004,14.492942 C 8.6667714,14.492942 9.1611424,14.429862 9.5000004,14.299407 C 9.8388484,14.165426 9.9999944,13.979714 10,13.718804 L 10,9.7835999 C 9.9999944,9.5226946 9.8388484,9.3011991 9.5000004,9.1707388 C 9.1611394,9.036764 8.6667744,8.9772095 8.0000004,8.9772046 z"
       id="text2423" />
    <path
       sodipodi:type="arc"
       style="opacity:1;fill:#000000;fill-opacity:1;fill-rule:nonzero;stroke:none;stroke-width:1;stroke-linecap:butt;stroke-linejoin:miter;stroke-miterlimit:4;stroke-dasharray:none;stroke-dashoffset:0;stroke-opacity:1"
       id="path2492"
       sodipodi:cx="27.5"
       sodipodi:cy="11.5"
       sodipodi:rx="1.5"
       sodipodi:ry="1.5"
       d="M 29,11.5 A 1.5,1.5 0 1 1 26,11.5 A 1.5,1.5 0 1 1 29,11.5 z"
       transform="matrix(1.33227,-5.2784071e-2,5.2784071e-2,1.33227,-29.244442,0.1187646)" />
    <path
       sodipodi:type="arc"
       style="opacity:1;fill:#000000;fill-opacity:1;fill-rule:nonzero;stroke:none;stroke-width:1;stroke-linecap:butt;stroke-linejoin:miter;stroke-miterlimit:4;stroke-dasharray:none;stroke-dashoffset:0;stroke-opacity:1"
       id="path2490"
       sodipodi:cx="27.5"
       sodipodi:cy="11.5"
       sodipodi:rx="1.5"
       sodipodi:ry="1.5"
       d="M 29,11.5 A 1.5,1.5 0 1 1 26,11.5 A 1.5,1.5 0 1 1 29,11.5 z"
       transform="matrix(1.33227,-5.2784071e-2,5.2784071e-2,1.33227,-29.244442,-4.6718058)" />
  </g>
</svg>
